X:254
T:Wandering Girl,The. JC.259
T:Bud Of The Rose,The, aka. JC.259
R:Air
S:John Clare,Poet,Helpstone (1793-1864)
N:Song text exists. See Deacon.
O:England
A:Northamptonshire
Z:vmp.P. Headford
M:6/8
L:1/8
Q:3/8=60
K:C
” As Writ”G|\
cBc dBG|ede fgf|dcd G A f/d/|d/c/ BAB ” crot”c:|!
|:g|gec GBd|efd BGG|cBc edc|cBcc2:|!
|:G|cBc dBG|ede fgf|dce GA f/e/|d/c/ BcB ” crot”c:|

